src/16/actions/snap-guideline.svg

<svg xmlns="http://www.w3.org/2000/svg" viewBox="0 0 16 16"><path d="M2 2v4l3-2-3-2zm3 2v3H4v3h1v4h1v-4h1V7H6V2H5v2zm1 0l3 2V2L6 4zm4 3v3h1v4h1v-4h1V7h-3zM8 8v1h1V8H8z" fill="currentColor" color="#5d656b"/></svg>

<svg xmlns="http://www.w3.org/2000/svg" viewBox="0 0 16 16">
  <defs id="defs3051">
    <style type="text/css" id="current-color-scheme">
      .ColorScheme-Text {
        color:#5d656b;
      }
      </style>
  </defs>
  <path 
     style="fill:currentColor;fill-opacity:1;stroke:none" 
     d="M 2 2 L 2 6 L 5 4 L 2 2 z M 5 4 L 5 7 L 4 7 L 4 10 L 5 10 L 5 14 L 6 14 L 6 10 L 7 10 L 7 7 L 6 7 L 6 4 L 6 2 L 5 2 L 5 4 z M 6 4 L 9 6 L 9 2 L 6 4 z M 10 7 L 10 10 L 11 10 L 11 14 L 12 14 L 12 10 L 13 10 L 13 7 L 10 7 z M 8 8 L 8 9 L 9 9 L 9 8 L 8 8 z "
     class="ColorScheme-Text"/>
</svg>
